archdroid-icon-theme/Archdroid-Cyan/apps/scalable/gnome-panel-notification-area.svg

<?xml version="1.0" encoding="UTF-8" standalone="no"?>
<svg
   xmlns:dc="http://purl.org/dc/elements/1.1/"
   xmlns:cc="http://creativecommons.org/ns#"
   xmlns:rdf="http://www.w3.org/1999/02/22-rdf-syntax-ns#"
   xmlns:svg="http://www.w3.org/2000/svg"
   xmlns="http://www.w3.org/2000/svg"
   xmlns:sodipodi="http://sodipodi.sourceforge.net/DTD/sodipodi-0.dtd"
   xmlns:inkscape="http://www.inkscape.org/namespaces/inkscape"
   width="48"
   height="48"
   viewBox="0 0 48 48"
   id="svg2"
   version="1.1"
   inkscape:version="0.91 r13725"
   sodipodi:docname="gnome-panel-notification-area.svg"
   fill="#00BCD4">
  <metadata
     id="metadata10">
    <rdf:RDF>
      <cc:Work
         rdf:about="">
        <dc:format>image/svg+xml</dc:format>
        <dc:type
           rdf:resource="http://purl.org/dc/dcmitype/StillImage" />
        <dc:title></dc:title>
      </cc:Work>
    </rdf:RDF>
  </metadata>
  <defs
     id="defs8" />
  <sodipodi:namedview
     pagecolor="#ffffff"
     bordercolor="#666666"
     borderopacity="1"
     objecttolerance="10"
     gridtolerance="10"
     guidetolerance="10"
     inkscape:pageopacity="0"
     inkscape:pageshadow="2"
     inkscape:window-width="1366"
     inkscape:window-height="713"
     id="namedview6"
     showgrid="false"
     inkscape:snap-bbox="true"
     inkscape:bbox-nodes="true"
     inkscape:zoom="4.524611648944851"
     inkscape:cx="-33.98201911606792"
     inkscape:cy="-2.260965098394117"
     inkscape:window-x="0"
     inkscape:window-y="30"
     inkscape:window-maximized="1"
     inkscape:current-layer="svg2"
     inkscape:bbox-paths="true"
     inkscape:snap-page="true" />
  <path
     style="opacity:1;fill:#00BCD4;fill-opacity:1;fill-rule:nonzero;stroke:none;stroke-width:0.5;stroke-miterlimit:4;stroke-dasharray:none;stroke-opacity:1"
     d="M 0 16 L 0 32 L 48 32 L 48 16 L 0 16 z M 33 19 L 41 19 C 41.55250000000001 19 42 19.4475 42 20 L 42 26 C 42 26.55249999999999 41.55250000000001 27 41 27 L 34 27 L 32 29 L 32 20 C 32 19.4475 32.44749999999999 19 33 19 z "
     id="path4246" />
</svg>

<svg xmlns="http://www.w3.org/2000/svg" viewBox="0 0 48 48" fill="#00BCD4"><path d="m0 16v16h48v-16h-48m33 3h8c.553 0 1 .448 1 1v6c0 .552-.447 1-1 1h-7l-2 2v-9c0-.552.447-1 1-1"/></svg>
